docs/Widgets/org.openxtalk.hh.svgtext.1.5.3.svg

<?xml version="1.0" standalone="no"?><!DOCTYPE svg PUBLIC "-//W3C//DTD SVG 20010904//EN" "http://www.w3.org/TR/2001/REC-SVG-20010904/DTD/svg10.dtd"><svg version="1.0" xmlns="http://www.w3.org/2000/svg"preserveAspectRatio="xMidYMid meet"><path d="M0 63.5 C 0 127,0 127,127.5 127 C 255 127,255 127,255 63.5 C 255 0,255 0,127.5 0 C 0 0,0 0,0 63.5 M56.592 35.258 C 56.731 35.398,57.150 38.209,57.522 41.506 C 58.198 47.5,58.198 47.5,49.849 47.5 C 37.518 47.5,32.093 50.569,34.958 55.922 C 35.546 57.021,40.107 60.027,45.094 62.603 C 51.827 66.080,54.806 68.261,56.670 71.077 C 61.307 78.084,59.616 87.141,52.682 92.429 C 46.986 96.774,41.421 98.186,27.802 98.743 C 13.439 99.330,14.740 100.111,13.657 90.250 C 13.190 86,13.190 86,22.575 86 C 32.881 86,39.467 84.146,40.286 81.015 C 41.224 77.426,38.562 74.537,30.595 70.5 C 21.440 65.861,17.639 62.467,15.985 57.455 C 14.358 52.524,15.503 47.635,19.299 43.312 C 23.310 38.744,29.302 36.054,37.854 34.981 C 43.510 34.272,55.787 34.454,56.592 35.258 M85.410 56 C 90.240 68.101,94.554 78.224,94.995 78.497 C 95.437 78.770,99.705 69.207,104.480 57.247 C 109.255 45.286,113.477 35.171,113.862 34.769 C 114.823 33.765,128.013 38.153,127.945 39.454 C 127.915 40.029,122.173 53.550,115.185 69.5 C 102.480 98.5,102.480 98.5,94.667 98.5 C 86.854 98.5,86.854 98.5,74.025 69 C 66.969 52.775,61.388 39.301,61.623 39.059 C 61.993 38.676,74.526 34.372,76.064 34.1 C 76.374 34.045,80.579 43.9,85.410 56 M182.364 39.640 C 183.526 48.119,183.981 47.640,174.146 48.278 C 156.948 49.392,147 56.598,147 67.941 C 147 76.548,153.398 83.740,163 85.926 C 171.297 87.816,170.898 88.285,171.216 76.250 C 171.5 65.5,171.5 65.5,178.847 65.5 C 186.194 65.5,186.194 65.5,186.051 81.463 C 185.973 90.242,185.664 97.667,185.366 97.963 C 184.366 98.953,165.549 98.256,159.490 97.004 C 141.973 93.384,131.031 81.750,131.010 66.718 C 130.991 53.775,137.532 45.106,151.844 39.105 C 158.902 36.145,163.822 35.242,173.614 35.110 C 181.728 35,181.728 35,182.364 39.640 M245 41.5 C 245 48,245 48,234.5 48 C 224 48,224 48,224 73 C 224 98,224 98,215.891 98 C 207.783 98,207.783 98,208.024 83.250 C 208.156 75.138,208.205 63.888,208.132 58.250 C 208 48,208 48,197.5 48 C 187 48,187 48,187 42.167 C 187 38.958,187.3 36.033,187.667 35.667 C 188.033 35.3,201.083 35,216.667 35 C 245 35,245 35,245 41.5Z" /></svg>

<?xml version="1.0" encoding="utf-8"?>
<!-- Generator: Adobe Illustrator 26.5.0, SVG Export Plug-In . SVG Version: 6.00 Build 0)  -->
<svg version="1.1" id="Layer_1" xmlns="http://www.w3.org/2000/svg" xmlns:xlink="http://www.w3.org/1999/xlink" x="0px" y="0px"
	 viewBox="0 0 255 127" style="enable-background:new 0 0 255 127;" xml:space="preserve">
<path d="M0,63.5C0,127,0,127,127.5,127S255,127,255,63.5S255,0,127.5,0S0,0,0,63.5 M56.6,35.3c0.1,0.1,0.6,3,0.9,6.2
	c0.7,6,0.7,6-7.7,6c-12.3,0-17.8,3.1-14.9,8.4c0.6,1.1,5.1,4.1,10.1,6.7c6.7,3.5,9.7,5.7,11.6,8.5c4.6,7,2.9,16.1-4,21.4
	c-5.7,4.3-11.3,5.8-24.9,6.3c-14.4,0.6-13.1,1.4-14.1-8.5C13.2,86,13.2,86,22.6,86c10.3,0,16.9-1.9,17.7-5c0.9-3.6-1.7-6.5-9.7-10.5
	c-9.2-4.6-13-8-14.6-13c-1.6-4.9-0.5-9.8,3.3-14.1c4-4.6,10-7.3,18.6-8.3C43.5,34.3,55.8,34.5,56.6,35.3 M85.4,56
	c4.8,12.1,9.1,22.2,9.6,22.5c0.4,0.3,4.7-9.3,9.5-21.2c4.8-12,9-22.1,9.4-22.5c1-1,14.2,3.4,14.1,4.7c0,0.6-5.8,14.1-12.8,30
	c-12.7,29-12.7,29-20.5,29S86.9,98.5,74,69C67,52.8,61.4,39.3,61.6,39.1c0.4-0.4,12.9-4.7,14.4-5C76.4,34,80.6,43.9,85.4,56
	 M182.4,39.6c1.2,8.5,1.6,8-8.2,8.6c-17.2,1.1-27.1,8.3-27.1,19.7c0,8.6,6.4,15.8,16,18c8.3,1.9,7.9,2.4,8.2-9.7
	c0.3-10.8,0.3-10.8,7.6-10.8s7.3,0,7.2,16c-0.1,8.8-0.4,16.2-0.7,16.5c-1,1-19.8,0.3-25.9-1C142,93.4,131,81.8,131,66.7
	c0-12.9,6.5-21.6,20.8-27.6c7.1-3,12-3.9,21.8-4C181.7,35,181.7,35,182.4,39.6 M245,41.5c0,6.5,0,6.5-10.5,6.5S224,48,224,73
	s0,25-8.1,25c-8.1,0-8.1,0-7.9-14.8c0.1-8.1,0.2-19.4,0.1-25C208,48,208,48,197.5,48S187,48,187,42.2c0-3.2,0.3-6.1,0.7-6.5
	c0.4-0.4,13.4-0.7,29-0.7C245,35,245,35,245,41.5z"/>
</svg>
